svg/list.svg

<svg width="32" height="32" fill="none" xmlns="http://www.w3.org/2000/svg"><path d="M10 10a1.5 1.5 0 1 0-3 0 1.5 1.5 0 0 0 3 0zM25 10c0 .552-.392 1-.875 1h-11.25c-.483 0-.875-.448-.875-1s.392-1 .875-1h11.25c.483 0 .875.448.875 1zM10 16a1.5 1.5 0 1 0-3 0 1.5 1.5 0 0 0 3 0zM25 16c0 .552-.392 1-.875 1h-11.25c-.483 0-.875-.448-.875-1s.392-1 .875-1h11.25c.483 0 .875.448.875 1zM10 22a1.5 1.5 0 1 0-3 0 1.5 1.5 0 0 0 3 0zM25 22c0 .552-.392 1-.875 1h-11.25c-.483 0-.875-.448-.875-1s.392-1 .875-1h11.25c.483 0 .875.448.875 1z" fill="#000"/></svg>

<svg width="32" height="32" viewBox="0 0 32 32" fill="none" xmlns="http://www.w3.org/2000/svg">
<path d="M10 10C10 9.171 9.328 8.5 8.5 8.5C7.672 8.5 7 9.171 7 10C7 10.829 7.672 11.5 8.5 11.5C9.328 11.5 10 10.829 10 10Z" fill="black"/>
<path d="M25 10C25 10.552 24.608 11 24.125 11H12.875C12.392 11 12 10.552 12 10C12 9.448 12.392 9 12.875 9H24.125C24.608 9 25 9.448 25 10Z" fill="black"/>
<path d="M10 16C10 15.171 9.328 14.5 8.5 14.5C7.672 14.5 7 15.171 7 16C7 16.829 7.672 17.5 8.5 17.5C9.328 17.5 10 16.829 10 16Z" fill="black"/>
<path d="M25 16C25 16.552 24.608 17 24.125 17H12.875C12.392 17 12 16.552 12 16C12 15.448 12.392 15 12.875 15H24.125C24.608 15 25 15.448 25 16Z" fill="black"/>
<path d="M10 22C10 21.171 9.328 20.5 8.5 20.5C7.672 20.5 7 21.171 7 22C7 22.829 7.672 23.5 8.5 23.5C9.328 23.5 10 22.829 10 22Z" fill="black"/>
<path d="M25 22C25 22.552 24.608 23 24.125 23H12.875C12.392 23 12 22.552 12 22C12 21.448 12.392 21 12.875 21H24.125C24.608 21 25 21.448 25 22Z" fill="black"/>
</svg>
